src/images/Cocktail.svg

<svg width="10" height="14" fill="none" xmlns="http://www.w3.org/2000/svg">
<path d="M13.9731 1.54688C13.9184 1.71354 13.7969 1.83854 13.6085 1.92188C13.4202 2.00521 13.2227 2.02604 13.0161 1.98438L10.3366 1.3125L9.82625 3H9.91739C10.0754 3 10.2121 3.04948 10.3275 3.14844C10.443 3.2474 10.5007 3.36458 10.5007 3.5V15C10.5007 15.2812 10.3852 15.5182 10.1543 15.7109C9.92346 15.9036 9.65005 16 9.3341 16H4.66778C4.33968 16 4.06323 15.901 3.83842 15.7031C3.61361 15.5052 3.5012 15.2708 3.5012 15V6C2.52905 6 1.70273 5.70833 1.02222 5.125C0.341717 4.54167 0.00146484 3.83333 0.00146484 3C0.00146484 2.16667 0.341717 1.45833 1.02222 0.875C1.70273 0.291667 2.52905 0 3.5012 0C4.47335 0 5.29968 0.291667 5.98018 0.875C6.66069 1.45833 7.00094 2.16667 7.00094 3H8.33157L9.09714 0.5C9.14574 0.375 9.21258 0.278646 9.29764 0.210938C9.3827 0.143229 9.49207 0.0963542 9.62574 0.0703125C9.75941 0.0442708 9.8627 0.0286458 9.93561 0.0234375C10.0085 0.0182292 10.1361 0.015625 10.3184 0.015625L13.4171 0.796875C13.6359 0.838542 13.7969 0.932292 13.9002 1.07812C14.0035 1.22396 14.0278 1.38021 13.9731 1.54688ZM4.66778 4.71875C5.02018 4.54167 5.29968 4.30208 5.50626 4H4.66778V4.71875ZM3.5012 1C2.85715 1 2.30728 1.19531 1.85159 1.58594C1.39589 1.97656 1.16804 2.44792 1.16804 3C1.16804 3.55208 1.39589 4.02344 1.85159 4.41406C2.30728 4.80469 2.85715 5 3.5012 5V3.5C3.5012 3.36458 3.55892 3.2474 3.67437 3.14844C3.78981 3.04948 3.92652 3 4.08449 3H5.83436C5.83436 2.44792 5.60651 1.97656 5.15082 1.58594C4.69512 1.19531 4.14525 1 3.5012 1ZM6.78221 4C6.61208 4.42708 6.3417 4.79948 5.97107 5.11719C5.60044 5.4349 5.16601 5.66667 4.66778 5.8125V7H7.09208L8.0217 4H6.78221ZM9.3341 4.59375L8.58676 7H9.3341V4.59375Z" fill="currentColor"/>
</svg>

<svg width="16" height="16" fill="none" xmlns="http://www.w3.org/2000/svg"><path d="M13.973 1.547c-.055.167-.176.292-.365.375a.96.96 0 0 1-.592.062l-2.68-.671L9.827 3h.091a.61.61 0 0 1 .41.148.45.45 0 0 1 .174.352V15a.892.892 0 0 1-.347.71 1.24 1.24 0 0 1-.82.29H4.668a1.21 1.21 0 0 1-.83-.297c-.224-.198-.337-.432-.337-.703V6c-.972 0-1.798-.292-2.479-.875C.342 4.542.002 3.833.002 3s.34-1.542 1.02-2.125C1.702.292 2.53 0 3.502 0 4.472 0 5.3.292 5.98.875 6.66 1.458 7 2.167 7 3h1.332L9.097.5a.669.669 0 0 1 .2-.29.748.748 0 0 1 .329-.14c.133-.026.237-.041.31-.047.072-.005.2-.007.382-.007l3.1.78c.218.043.379.136.482.282a.5.5 0 0 1 .073.469zM4.668 4.719c.352-.177.632-.417.838-.719h-.838v.719zM3.5 1c-.644 0-1.194.195-1.65.586-.455.39-.683.862-.683 1.414 0 .552.228 1.023.684 1.414.455.39 1.005.586 1.65.586V3.5a.45.45 0 0 1 .172-.352.61.61 0 0 1 .41-.148h1.75c0-.552-.227-1.023-.683-1.414C4.695 1.196 4.145 1 3.5 1zm3.281 3c-.17.427-.44.8-.81 1.117-.372.318-.806.55-1.304.696V7h2.424l.93-3h-1.24zm2.552.594L8.587 7h.747V4.594z" fill="currentColor"/></svg>
